X:1
T:James Gibb editions
T:Remember me, shew forth my death - Barnby
%%score [ ( 1 2 ) ( 3 4 5 ) ]
L:1/8
Q:1/4=66
M:4/4
K:E
V:1 treble nm="Midi_74"
V:2 treble 
V:3 bass nm="Midi_74"
V:4 bass 
V:5 bass 
V:1
"^C.M.""^Remember me, shew forth my death""^Joseph Barnby\n(1838-96)"!mf! G2 | G2 B2 E2 F2 | %2
 G2 F2 E2 || c2 | B2 A2 A2 G2 | A6 ||[M:4/4] A2 | c2 B2 A2 =e2 | d2 c2 B2 || B2 | B2 AG F2 A2 | %11
 G6 || A4 G4 |] %13
V:2
 E2 | E2 F2 E2 E2 | E2 D2 E2 || E2 | E2 E2 F2 E2 | E6 ||[M:4/4] E2 | E2 ^E2 F2 A2 | A2 A2 A2 || %9
 G2 | G2 FE E2 D2 | E6 || E4 E4 |] %13
V:3
 B,2 | B,2 B,2 B,2 A,2 | G,2 A,2 G,2 || A,2 | =D2 C2 B,2 B,2 | C6 ||[M:4/4] C2 | C2 C2 C2 C2 | %8
 D2 E2 F2 || ED | C2 C2 C2 B,2 | B,6 || C4 B,4 |] %13
V:4
 E,2 | E,2 D,2 C,2 C,2 | B,,2 B,,2 E,2 || A,2 | G,2 A,2 =D,2 E,2 | A,6 ||[M:4/4] A,2 | %7
 A,2 G,2 F,2 F,2 | F,2 E,2 D,2 || E,2 | A,,2 A,,2 B,,2 B,,2 | E,6 || A,,4 E,4 |] %13
V:5
 x2 | x8 | x6 || x2 | x8 | x6 ||[M:4/4] x2 | x2 x2 x2 x2 | x2 x2 x2 || x2 | E,2 F,G, A,2 F,2 | %11
 G,6 || x2 x2 x2 x2 |] %13

